!!!!SEGMENT: pl-wn--sd-xvi-qu-273--037_gomolka-mikolaj--nie-obruszaj-sie-ze-kto-niewstydliwie.krn
!!!cenid: 15xx:242
!!!COM: Gomółka, Mikołaj
!!!COM-rismid: pe30013343
!!!CDT: ~1535->1591/04/30
!!!CNT: Polish
!!!GTL: Melodiae na psalterz polski
!!!OTL: XXXVII. Nie obruszaj się, że kto niewstydliwie
!!!ONB: PSALM XXXVIII: Noli aemulari in malignantibus, ne que zelaueris facientes iniquitatem.
!!!PDT: 1580
!!!AGN: Sacred
!!!SMS-siglum: PL-Wn
!!!SMS-shelfmark: SD XVI.Qu.273
!!!SMS-shelfwork: 037 G
!!!NIFC-rismid:
!!!ONB-nifc: Melodiae na psalterz polski
**kern	**text	**kern	**text	**kern	**text	**kern	**text
*part4	*part4	*part3	*part3	*part2	*part2	*part1	*part1
*staff4	*staff4	*staff3	*staff3	*staff2	*staff2	*staff1	*staff1
*clefF3	*	*clefC3	*	*clefC3	*	*clefC1	*
*k[b-B-]	*	*k[b-]	*	*k[b-]	*	*k[b-]	*
*g:	*	*g:	*	*g:	*	*g:	*
*M2/1	*	*M2/1	*	*M2/1	*	*M2/1	*
*met(C|)	*	*met(C|)	*	*met(C|)	*	*met(C|)	*
*I"BASSUS.	*	*I"TENOR.	*	*I"ALTUS.	*	*I"CANTUS.	*
*>[A,A,B]	*	*>[A,A,B]	*	*>[A,A,B]	*	*>[A,A,B]	*
=1-	=1	=1-	=1	=1-	=1	=1-	=1
*>A	*	*>A	*	*>A	*	*>A	*
*	*^	*	*^	*	*^	*	*^
!LO:TX:t=P:dwa bemole przy kluczu:problem	!	!	!	!	!	!	!	!	!	!	!
1G\	NIe	W grzé-	1B-/	NIe	W gr(zé-	1d\	Nie	W grzé-	1g\	Nie	W grzé-
2D/	o-	-(chu)	2A/	o-	-chu)	2d\	o-	-(chu)	2f/	o-	-(chu)
2G\	-bru-	sye	2B-/	-bru-	sye	4d\	-bru-	sye	2g/	-bru-	sye
.	.	.	.	.	.	4e\	.	.	.	.	.
=2-	=2	=2	=2-	=2	=2	=2-	=2	=2	=2-	=2	=2
1F\	-szay	ko-	1c\	-szay	ko-	1f\	-szay	ko-	1a\	-szay	ko-
2F/	sye,	-cha,	2c/	sye,	-cha,	2f\	sye,	-cha,	2a\	sye,	-cha,
2BB-/	że	y	2d\	że	y	2f\	że	y	2b-\	że	y
=3-	=3	=3	=3-	=3	=3	=3-	=3	=3	=3-	=3	=3
2C/	kto	wsze-	2.c/	kto	wsze-	2e-\X	kto	wsze-	2a\	kto	wsze-
2C/	nie-	-te-	.	.	.	2e-\	nie-	-te-	2g/	nie-	-te-
.	.	.	4B-/	nie-	-te-	.	.	.	.	.	.
2D/	-wsty-	-cznie	4A/	-wsty-	-cznie	2.d\	-wsty-	-cznie	2g/	-wsty-	-cznie
.	.	.	4G/	-dli-	ży-	.	.	.	.	.	.
2D/	-dli-	ży-	2A/	-wie	-wie:	.	.	.	2f/	-dli-	ży-
.	.	.	.	.	.	4c/	-dli-	ży-	.	.	.
=4-	=4	=4	=4-	=4	=4	=4-	=4	=4	=4-	=4	=4
1G\	-wie	-wie:	1G/	.	.	1Bn/	-wie	-wie:	1g\	-wie	-wie:
*	*v	*v	*	*v	*v	*	*v	*v	*	*v	*v
=:|!	=	=:|!	=	=:|!	=	=:|!	=
*>B	*	*>B	*	*>B	*	*>B	*
1G\	Bo	1d\	Bo	1g\	Bo	1b-\	Bo
=5-	=5	=5-	=5	=5-	=5	=5-	=5
2C/	ći	2e\	ći	2g\	ći	2cc\	ći
2D/	le-	1d\	le-	2f\	le-	2a\	le-
1AA/	-dá	.	.	1e\	-dá	1a\	-dá
.	.	2c#X\	-dá	.	.	.	.
=6-	=6	=6-	=6	=6-	=6	=6-	=6
!!LO:PB:g=original
2D/	w dźiéń	2d\	w dźiéń	2f#X\	w dźiéń	2a\	w dźiéń
2BB-/	ták	2.f\	ták	2d\	ták	2.dd\	ták
2BB-/	u-	.	.	4b-\	u-	.	.
.	.	4e\	u-	4a\	-pá-	4cc\	u-
2BB-/	-pá-	4d\	-pá-	4g\	-dną	4b-\	-pá-
.	.	4cny/	-d(ną)	4f#\	.	4a\	-dną
=7-	=7	=7-	=7	=7-	=7	=7-	=7
!LO:SIC:s=2E-:v	!	!	!	!	!	!	!
2E/	-dną	4B-/	sná-	4e-X\	sná	4g/	sná-
.	.	4A/	.	2d\	.	4f/	.
!LO:SIC:s=2E-:v	!	!	!	!	!	!	!
2E/	sná-	2G/	-dnie,	.	.	2g/	-dnie
.	.	.	.	4c/	-dnie,	.	.
2D/	-(dnie,)	2A/	Já-	2d\	Já-	2f#X/	Já-
2D/	Já-	2.d\	-ko	2.fny\	-ko	2a\	-ko
=8-	=8	=8-	=8	=8-	=8	=8-	=8
2D/	-ko	.	.	.	.	2a\	zá
!	!	!	!	!LO:SIC:s=4E-:v	!	!	!
.	.	4c/	zá	4eny\	zá	.	.
2F/	zá	4B-/	ko-	1d\	ko-	2fny/	ko-
.	.	4A/	-są	.	.	.	.
1E/	ko-	1G/	tra-	.	.	4g/	.
.	.	.	.	.	.	4f/	-są
.	.	.	.	2c/	są	4g/	.
.	.	.	.	.	.	4a\	tra-
=9-	=9	=9-	=9	=9-	=9	=9-	=9
1D/	-są	2F/	-wá	2d\	tra-	2b-\	.
.	.	2d\	prę-	2f\	-wá	2a\	-wá
2.C/	tra-	2.e\	-dko	2.g\	prę-	2.cc\	prę-
4D/	-wá	4d\	.	4f\	.	4b-\	-dko
=10-	=10	=10-	=10	=10-	=10	=10-	=10
2F/	prę-	4c\	.	4f\	-dko	2a\	pá-
.	.	4B-/	.	4e\	pá-	.	.
2G\	-dko	4A/	.	4d\	.	1g\	.
.	.	4G/	pá-	4c\	-dnie.	.	.
1D/	pá-	1A/	-dnie.	2.d\	.	.	.
.	.	.	.	.	.	2f/	-dnie.
.	.	.	.	4c\	.	.	.
=11-	=11	=11-	=11	=11-	=11	=11-	=11
000G\	-dnie.	000G/	.	000B-\	.	000g\	.
==	==	==	==	==	==	==	==
*-	*-	*-	*-	*-	*-	*-	*-
!!!RDF**kern: l = terminal long
!!!system-decoration: s1,s2,s3,s4
!!!ENC: Marta Lawrence
!!!END: 2020-02-08
!!!URL-scan: https://polona.pl/item/melodiae-na-psalterz-polski,Nzk3MTM4ODQ/96 Scan on Polona
!!!IIIF: https://polona.pl/iiif/item/Nzk3MTM4ODQ/manifest.json
